src/images/svg/instagram.svg

<svg width="40" height="40" viewBox="0 0 40 40" fill="none" xmlns="http://www.w3.org/2000/svg">
<g clip-path="url(#clip0)">
<path d="M39.3152 7.15454C38.9511 3.74329 36.257 1.04858 32.8455 0.684814C24.2902 -0.228271 15.7098 -0.228271 7.15485 0.684814C3.74329 1.04889 1.04889 3.74329 0.684814 7.15454C-0.228271 15.7095 -0.228271 24.2902 0.684814 32.8452C1.04889 36.2567 3.74329 38.9511 7.15454 39.3152C15.7095 40.2283 24.2902 40.2283 32.8455 39.3152C36.257 38.9511 38.9511 36.2567 39.3152 32.8452C40.2283 24.2902 40.2283 15.7098 39.3152 7.15454Z" fill="url(#paint0_radial)"/>
<path d="M37.1394 8.60117C36.8165 5.57413 34.4258 3.18307 31.3984 2.85989C23.8069 2.04996 16.1927 2.04996 8.60117 2.85989C5.57413 3.18307 3.18307 5.57413 2.85989 8.60117C2.04996 16.1927 2.04996 23.8069 2.85989 31.3981C3.18307 34.4254 5.57413 36.8165 8.60117 37.1394C16.1927 37.9496 23.8069 37.9496 31.3981 37.1394C34.4254 36.8165 36.8165 34.4254 37.1394 31.3981C37.9496 23.8069 37.9496 16.1927 37.1394 8.60117Z" fill="url(#paint1_linear)"/>
<path d="M0.599609 32.0161C0.627075 32.2926 0.655457 32.5691 0.685059 32.8456C1.04913 36.2568 3.74353 38.9512 7.15509 39.3153C15.7101 40.2284 24.2907 40.2284 32.8457 39.3153C36.2573 38.9512 38.9514 36.2568 39.3154 32.8456C39.345 32.5691 39.3734 32.2926 39.4012 32.0161H0.599609Z" fill="url(#paint2_linear)"/>
<path d="M39.315 32.8453C39.8057 28.2484 40.0322 23.6442 39.9955 19.0407L30.8525 9.89759C29.7102 8.59357 28.0418 7.77967 26.0814 7.70917C22.0497 7.56391 18.0052 7.57123 13.9729 7.70978C10.6239 7.82514 8.28198 10.0761 7.6814 13.3845C7.5755 13.9686 7.51202 14.5604 7.42871 15.1487V24.8478C7.47479 25.1622 7.54254 25.475 7.5636 25.7911C7.69788 27.8035 8.5249 29.5271 9.84906 30.6932L19.1533 39.9971C23.7193 40.0291 28.2856 39.8021 32.8453 39.3153C36.2568 38.9512 38.9509 36.2568 39.315 32.8453Z" fill="url(#paint3_linear)"/>
<path d="M39.3154 32.8457C38.9516 36.2567 36.2566 38.9517 32.8456 39.3154C28.2866 39.8019 23.7194 40.0292 19.1539 39.9972L9.86377 30.707C10.9407 31.6497 12.3445 32.2238 13.9736 32.2851C18.0049 32.4365 22.0504 32.4325 26.0817 32.2872C29.728 32.1554 32.3665 29.4567 32.4803 25.8105C32.6018 21.939 32.6018 18.0575 32.4803 14.186C32.4285 12.5039 31.838 11.0238 30.8589 9.90381L39.9962 19.0411C40.0322 23.644 39.8058 28.2488 39.3154 32.8457Z" fill="url(#paint4_linear)"/>
<path d="M24.72 15.6688C23.5487 14.3934 21.8681 13.5933 20.0001 13.5933C16.4619 13.5933 13.5933 16.4619 13.5933 20.0001C13.5933 21.8681 14.3934 23.5487 15.6688 24.72L30.4921 39.5433C31.2767 39.4749 32.0613 39.3989 32.8453 39.3153C36.2568 38.9512 38.9512 36.2568 39.3153 32.8453C39.3989 32.0613 39.4749 31.2767 39.5433 30.4921L24.72 15.6688Z" fill="url(#paint5_linear)"/>
<path d="M39.9227 24.3089L27.9927 12.3793C27.7144 12.014 27.2759 11.7769 26.7812 11.7769C25.9395 11.7769 25.2568 12.4592 25.2568 13.3012C25.2568 13.7959 25.494 14.2344 25.8593 14.5128L39.7094 28.3632C39.8033 27.0121 39.8745 25.6605 39.9227 24.3089Z" fill="url(#paint6_linear)"/>
<path d="M7.42871 15.1487C7.51202 14.5604 7.5755 13.9686 7.6814 13.3845C8.28168 10.0761 10.6239 7.82514 13.9729 7.70978C18.0052 7.57123 22.0497 7.56391 26.0814 7.70917C29.7264 7.8404 32.3661 10.5394 32.48 14.1856C32.6011 18.0574 32.6011 21.9386 32.48 25.8104C32.3661 29.4566 29.7273 32.1553 26.0817 32.2868C22.05 32.4324 18.0046 32.436 13.9732 32.2847C10.3276 32.1476 7.80743 29.4426 7.5636 25.7908C7.54254 25.475 7.47479 25.1619 7.42871 24.8475C7.42871 21.6145 7.42871 18.3815 7.42871 15.1487ZM20.0032 30.1259C21.8483 30.1259 23.6952 30.1811 25.5378 30.113C28.4269 30.0059 30.204 28.2817 30.2714 25.3953C30.355 21.7988 30.355 18.1975 30.2714 14.6007C30.204 11.7149 28.4257 9.95038 25.5378 9.88904C21.8724 9.81153 18.2029 9.81214 14.5375 9.88904C11.6716 9.94916 9.88934 11.678 9.81152 14.532C9.71265 18.174 9.71265 21.8223 9.81152 25.4643C9.88934 28.318 11.6716 30.0068 14.5378 30.113C16.3572 30.1808 18.1813 30.1259 20.0032 30.1259Z" fill="url(#paint7_linear)"/>
<path d="M7.42871 15.1487C7.51202 14.5604 7.5755 13.9686 7.6814 13.3845C8.28168 10.0761 10.6239 7.82514 13.9729 7.70978C18.0052 7.57123 22.0497 7.56391 26.0814 7.70917C29.7264 7.8404 32.3661 10.5394 32.48 14.1856C32.6011 18.0574 32.6011 21.9386 32.48 25.8104C32.3661 29.4566 29.7273 32.1553 26.0817 32.2868C22.05 32.4324 18.0046 32.436 13.9732 32.2847C10.3276 32.1476 7.80743 29.4426 7.5636 25.7908C7.54254 25.475 7.47479 25.1619 7.42871 24.8475C7.42871 21.6145 7.42871 18.3815 7.42871 15.1487ZM20.0032 30.1259C21.8483 30.1259 23.6952 30.1811 25.5378 30.113C28.4269 30.0059 30.204 28.2817 30.2714 25.3953C30.355 21.7988 30.355 18.1975 30.2714 14.6007C30.204 11.7149 28.4257 9.95038 25.5378 9.88904C21.8724 9.81153 18.2029 9.81214 14.5375 9.88904C11.6716 9.94916 9.88934 11.678 9.81152 14.532C9.71265 18.174 9.71265 21.8223 9.81152 25.4643C9.88934 28.318 11.6716 30.0068 14.5378 30.113C16.3572 30.1808 18.1813 30.1259 20.0032 30.1259Z" fill="white"/>
<path d="M19.9996 13.5933C16.4614 13.5933 13.5928 16.4616 13.5928 19.9998C13.5928 23.5383 16.4614 26.4067 19.9996 26.4067C23.5381 26.4067 26.4065 23.5383 26.4065 19.9998C26.4065 16.4616 23.5381 13.5933 19.9996 13.5933ZM19.9996 24.2009C17.6794 24.2009 15.7986 22.3201 15.7986 19.9998C15.7986 17.6796 17.6794 15.7988 19.9996 15.7988C22.3199 15.7988 24.2007 17.6796 24.2007 19.9998C24.2007 22.3201 22.3199 24.2009 19.9996 24.2009Z" fill="white"/>
<path d="M28.3047 13.3012C28.3047 14.1429 27.6224 14.8253 26.7807 14.8253C25.939 14.8253 25.2563 14.1429 25.2563 13.3012C25.2563 12.4592 25.939 11.7769 26.7807 11.7769C27.6224 11.7769 28.3047 12.4592 28.3047 13.3012Z" fill="white"/>
</g>
<defs>
<radialGradient id="paint0_radial" cx="0" cy="0" r="1" gradientUnits="userSpaceOnUse" gradientTransform="translate(8.19977 34.9568) scale(44.113)">
<stop stop-color="#FAE100"/>
<stop offset="0.0544" stop-color="#FADC04"/>
<stop offset="0.1167" stop-color="#FBCE0E"/>
<stop offset="0.1829" stop-color="#FCB720"/>
<stop offset="0.2514" stop-color="#FE9838"/>
<stop offset="0.3054" stop-color="#FF7950"/>
<stop offset="0.4922" stop-color="#FF1C74"/>
<stop offset="1" stop-color="#6C1CD1"/>
</radialGradient>
<linearGradient id="paint1_linear" x1="15.3414" y1="17.3794" x2="-52.4233" y2="-20.7382" gradientUnits="userSpaceOnUse">
<stop stop-color="#A1B5D8" stop-opacity="0"/>
<stop offset="0.3094" stop-color="#90A2BD" stop-opacity="0.309804"/>
<stop offset="0.7554" stop-color="#7C8B9C" stop-opacity="0.756863"/>
<stop offset="1" stop-color="#748290"/>
</linearGradient>
<linearGradient id="paint2_linear" x1="20.0003" y1="35.31" x2="20.0003" y2="41.545" gradientUnits="userSpaceOnUse">
<stop stop-color="#FAE100" stop-opacity="0"/>
<stop offset="0.3068" stop-color="#FCA800" stop-opacity="0.305882"/>
<stop offset="0.6275" stop-color="#FE7300" stop-opacity="0.627451"/>
<stop offset="0.8685" stop-color="#FF5200" stop-opacity="0.866667"/>
<stop offset="1" stop-color="#FF4500"/>
</linearGradient>
<linearGradient id="paint3_linear" x1="17.7242" y1="17.6679" x2="7.82487" y2="7.76858" gradientUnits="userSpaceOnUse">
<stop stop-color="#833AB4" stop-opacity="0"/>
<stop offset="1" stop-color="#833AB4"/>
</linearGradient>
<linearGradient id="paint4_linear" x1="27.4142" y1="36.5852" x2="22.4733" y2="13.2922" gradientUnits="userSpaceOnUse">
<stop stop-color="#833AB4" stop-opacity="0"/>
<stop offset="1" stop-color="#833AB4"/>
</linearGradient>
<linearGradient id="paint5_linear" x1="29.2943" y1="29.2943" x2="9.44864" y2="9.44863" gradientUnits="userSpaceOnUse">
<stop stop-color="#833AB4" stop-opacity="0"/>
<stop offset="1" stop-color="#833AB4"/>
</linearGradient>
<linearGradient id="paint6_linear" x1="30.7663" y1="17.2863" x2="24.2038" y2="10.7237" gradientUnits="userSpaceOnUse">
<stop stop-color="#833AB4" stop-opacity="0"/>
<stop offset="1" stop-color="#833AB4"/>
</linearGradient>
<linearGradient id="paint7_linear" x1="27.9419" y1="12.1134" x2="11.761" y2="28.2943" gradientUnits="userSpaceOnUse">
<stop stop-color="#833AB4"/>
<stop offset="0.0922" stop-color="#9C3495"/>
<stop offset="0.2927" stop-color="#DC2546"/>
<stop offset="0.392" stop-color="#FD1D1D"/>
<stop offset="0.5589" stop-color="#FC6831"/>
<stop offset="0.6887" stop-color="#FC9B40"/>
<stop offset="0.7521" stop-color="#FCAF45"/>
<stop offset="0.7806" stop-color="#FDB750"/>
<stop offset="0.8656" stop-color="#FECB6A"/>
<stop offset="0.9415" stop-color="#FFD87A"/>
<stop offset="1" stop-color="#FFDC80"/>
</linearGradient>
<clipPath id="clip0">
<rect width="40" height="40" fill="white"/>
</clipPath>
</defs>
</svg>

<svg width="40" height="40" fill="none" xmlns="http://www.w3.org/2000/svg"><g clip-path="url(#clip0)"><path d="M39.315 7.155a7.283 7.283 0 00-6.47-6.47 120.815 120.815 0 00-25.69 0 7.283 7.283 0 00-6.47 6.47 120.815 120.815 0 000 25.69 7.283 7.283 0 006.47 6.47c8.555.913 17.135.913 25.69 0a7.283 7.283 0 006.47-6.47c.913-8.555.913-17.135 0-25.69z" fill="url(#paint0_radial)"/><path d="M37.14 8.601a6.463 6.463 0 00-5.742-5.741 107.25 107.25 0 00-22.797 0A6.464 6.464 0 002.86 8.6c-.81 7.592-.81 15.206 0 22.797A6.463 6.463 0 008.6 37.14c7.592.81 15.206.81 22.797 0a6.463 6.463 0 005.741-5.74c.81-7.592.81-15.206 0-22.798z" fill="url(#paint1_linear)"/><path d="M.6 32.016c.027.277.055.553.085.83a7.283 7.283 0 006.47 6.47c8.555.912 17.136.912 25.69 0a7.283 7.283 0 006.47-6.47c.03-.277.058-.553.086-.83H.6z" fill="url(#paint2_linear)"/><path d="M39.315 32.845c.49-4.597.717-9.2.68-13.804l-9.142-9.143C29.71 8.594 28.041 7.78 26.08 7.709a172.253 172.253 0 00-12.108 0c-3.35.116-5.691 2.367-6.292 5.675-.106.585-.169 1.176-.252 1.765v9.699c.046.314.114.627.135.943.134 2.012.96 3.736 2.285 4.902l9.304 9.304c4.566.032 9.133-.195 13.692-.682a7.283 7.283 0 006.47-6.47z" fill="url(#paint3_linear)"/><path d="M39.315 32.846a7.283 7.283 0 01-6.47 6.47c-4.558.486-9.126.713-13.691.681l-9.29-9.29c1.077.943 2.48 1.517 4.11 1.578 4.03.152 8.076.148 12.108.002 3.646-.132 6.285-2.83 6.398-6.476.122-3.872.122-7.753 0-11.625-.051-1.682-.642-3.162-1.621-4.282l9.137 9.137c.036 4.603-.19 9.208-.68 13.805z" fill="url(#paint4_linear)"/><path d="M24.72 15.669a6.407 6.407 0 10-9.051 9.051l14.823 14.823c.785-.068 1.57-.144 2.353-.228a7.284 7.284 0 006.47-6.47c.084-.784.16-1.568.228-2.353L24.72 15.67z" fill="url(#paint5_linear)"/><path d="M39.923 24.309l-11.93-11.93a1.524 1.524 0 10-2.133 2.133l13.85 13.851c.093-1.35.164-2.703.213-4.054z" fill="url(#paint6_linear)"/><path d="M7.429 15.149c.083-.589.146-1.18.252-1.764.6-3.309 2.943-5.56 6.292-5.675 4.032-.139 8.077-.146 12.108 0 3.645.13 6.285 2.83 6.399 6.476a186.03 186.03 0 010 11.624c-.114 3.647-2.753 6.345-6.398 6.477-4.032.145-8.077.149-12.109-.002-3.645-.137-6.166-2.842-6.41-6.494-.02-.316-.088-.63-.134-.944V15.15zm12.574 14.977c1.845 0 3.692.055 5.535-.013 2.889-.107 4.666-1.831 4.733-4.718.084-3.596.084-7.197 0-10.794-.067-2.886-1.845-4.65-4.733-4.712a261.253 261.253 0 00-11 0c-2.866.06-4.649 1.789-4.726 4.643-.1 3.642-.1 7.29 0 10.932.077 2.854 1.86 4.543 4.726 4.649 1.82.068 3.643.013 5.465.013z" fill="url(#paint7_linear)"/><path d="M7.429 15.149c.083-.589.146-1.18.252-1.764.6-3.309 2.943-5.56 6.292-5.675 4.032-.139 8.077-.146 12.108 0 3.645.13 6.285 2.83 6.399 6.476a186.03 186.03 0 010 11.624c-.114 3.647-2.753 6.345-6.398 6.477-4.032.145-8.077.149-12.109-.002-3.645-.137-6.166-2.842-6.41-6.494-.02-.316-.088-.63-.134-.944V15.15zm12.574 14.977c1.845 0 3.692.055 5.535-.013 2.889-.107 4.666-1.831 4.733-4.718.084-3.596.084-7.197 0-10.794-.067-2.886-1.845-4.65-4.733-4.712a261.253 261.253 0 00-11 0c-2.866.06-4.649 1.789-4.726 4.643-.1 3.642-.1 7.29 0 10.932.077 2.854 1.86 4.543 4.726 4.649 1.82.068 3.643.013 5.465.013z" fill="#fff"/><path d="M20 13.593a6.407 6.407 0 100 12.814 6.407 6.407 0 000-12.814zm0 10.608a4.201 4.201 0 110-8.402 4.201 4.201 0 010 8.402zM28.305 13.301a1.524 1.524 0 11-3.048 0 1.524 1.524 0 013.048 0z" fill="#fff"/></g><defs><linearGradient id="paint1_linear" x1="15.341" y1="17.379" x2="-52.423" y2="-20.738" gradientUnits="userSpaceOnUse"><stop stop-color="#A1B5D8" stop-opacity="0"/><stop offset=".309" stop-color="#90A2BD" stop-opacity=".31"/><stop offset=".755" stop-color="#7C8B9C" stop-opacity=".757"/><stop offset="1" stop-color="#748290"/></linearGradient><linearGradient id="paint2_linear" x1="20" y1="35.31" x2="20" y2="41.545" gradientUnits="userSpaceOnUse"><stop stop-color="#FAE100" stop-opacity="0"/><stop offset=".307" stop-color="#FCA800" stop-opacity=".306"/><stop offset=".627" stop-color="#FE7300" stop-opacity=".627"/><stop offset=".869" stop-color="#FF5200" stop-opacity=".867"/><stop offset="1" stop-color="#FF4500"/></linearGradient><linearGradient id="paint3_linear" x1="17.724" y1="17.668" x2="7.825" y2="7.769" gradientUnits="userSpaceOnUse"><stop stop-color="#833AB4" stop-opacity="0"/><stop offset="1" stop-color="#833AB4"/></linearGradient><linearGradient id="paint4_linear" x1="27.414" y1="36.585" x2="22.473" y2="13.292" gradientUnits="userSpaceOnUse"><stop stop-color="#833AB4" stop-opacity="0"/><stop offset="1" stop-color="#833AB4"/></linearGradient><linearGradient id="paint5_linear" x1="29.294" y1="29.294" x2="9.449" y2="9.449" gradientUnits="userSpaceOnUse"><stop stop-color="#833AB4" stop-opacity="0"/><stop offset="1" stop-color="#833AB4"/></linearGradient><linearGradient id="paint6_linear" x1="30.766" y1="17.286" x2="24.204" y2="10.724" gradientUnits="userSpaceOnUse"><stop stop-color="#833AB4" stop-opacity="0"/><stop offset="1" stop-color="#833AB4"/></linearGradient><linearGradient id="paint7_linear" x1="27.942" y1="12.113" x2="11.761" y2="28.294" gradientUnits="userSpaceOnUse"><stop stop-color="#833AB4"/><stop offset=".092" stop-color="#9C3495"/><stop offset=".293" stop-color="#DC2546"/><stop offset=".392" stop-color="#FD1D1D"/><stop offset=".559" stop-color="#FC6831"/><stop offset=".689" stop-color="#FC9B40"/><stop offset=".752" stop-color="#FCAF45"/><stop offset=".781" stop-color="#FDB750"/><stop offset=".866" stop-color="#FECB6A"/><stop offset=".942" stop-color="#FFD87A"/><stop offset="1" stop-color="#FFDC80"/></linearGradient><radialGradient id="paint0_radial" cx="0" cy="0" r="1" gradientUnits="userSpaceOnUse" gradientTransform="translate(8.2 34.957) scale(44.113)"><stop stop-color="#FAE100"/><stop offset=".054" stop-color="#FADC04"/><stop offset=".117" stop-color="#FBCE0E"/><stop offset=".183" stop-color="#FCB720"/><stop offset=".251" stop-color="#FE9838"/><stop offset=".305" stop-color="#FF7950"/><stop offset=".492" stop-color="#FF1C74"/><stop offset="1" stop-color="#6C1CD1"/></radialGradient><clipPath id="clip0"><path fill="#fff" d="M0 0h40v40H0z"/></clipPath></defs></svg>
